X: 83
T: Pig Town Fling
R: reel
Z: 1997 by John Chambers <jc:trillian.mit.edu>
M: C|
L: 1/8
K: G
"A"|:\
"G"G2ge d2ed | B2ge "(D7)"dBAB | "G"G2ge d2ed |\
[1,3 BGAG "C"EF"D7"GA :|[2,4 "D7"BGAF "G"G4 :|
"B"|:\
"Em"Be2e e2eg | "D"fgaf "Em"gfed | Be2e efge |\
[1,3 "D"fgaf "Em"g2B2 :|[2,4 "D"fgaf "G"g4 :|

%%sep 1 1 500

